launcher/android/assets/skins/day/svg/missingIcon.svg

<svg enable-background="new 0 0 50.00 50.00" height="50" viewBox="0 0 50 50" width="50" xmlns="http://www.w3.org/2000/svg" xmlns:xlink="http://www.w3.org/1999/xlink"><radialGradient id="a" cx="25" cy="25" gradientUnits="userSpaceOnUse" r="24"><stop offset="0" stop-color="#fcd7d7"/><stop offset=".991379" stop-color="#f00"/></radialGradient><radialGradient id="b" cx="25" cy="-6.03447" gradientUnits="userSpaceOnUse" r="40"><stop offset="0" stop-color="#fff" stop-opacity=".486275"/><stop offset=".271552" stop-color="#fff1f1" stop-opacity=".486275"/><stop offset="1" stop-color="#f00" stop-opacity=".486275"/></radialGradient><radialGradient id="c" cx="25" cy="12.5862" gradientTransform="matrix(-1 0 0 -1 50.000038 25.172432)" gradientUnits="userSpaceOnUse" r="40"><stop offset=".116379" stop-color="#fff" stop-opacity="0"/><stop offset="1" stop-color="#ffe700" stop-opacity=".513725"/></radialGradient><g stroke-linejoin="round"><ellipse cx="25" cy="25" fill="url(#a)" rx="22.5" ry="22.5" stroke="#000" stroke-width="2"/><ellipse cx="25" cy="25" fill="url(#b)" rx="20" ry="20" stroke-width=".2"/><ellipse cx="25" cy="25" fill="url(#c)" rx="20" ry="20" stroke-width=".2"/><g stroke="#fff" stroke-width=".299998"><path d="m13.8812 25.8959h-1.382v-3.9098c0-.422.0175-.8882.0526-1.3986h-.0337c-.0702.4016-.1336.6903-.1903.8663l-1.4171 4.4421h-1.11349l-1.44278-4.3969c-.03958-.1186-.10302-.4225-.1903-.9115h-.03778c.03598.6446.05398 1.21.05398 1.6961v3.6123h-1.20928v-6.5334h1.97723l1.23492 3.8734c.099.3091.171.6202.216.9333h.0256c.0756-.3617.1557-.6762.2402-.9435l1.235-3.8632h1.9812z"/><path d="m17.1636 19.3625v1.12h-.5183v4.2934h.5183v1.12h-2.4186v-1.12h.5183v-4.2934h-.5183v-1.12z"/><path d="m17.7682 25.6348v-1.4189c.2439.2177.5084.3811.7936.49.2852.1088.5732.1633.8638.1633.1709 0 .3201-.0175.4474-.0525s.2337-.0834.3192-.1451.1491-.1344.191-.218c.0418-.0836.0627-.1746.0627-.2727 0-.1264-.0333-.2395-.0999-.3391-.0665-.0997-.1574-.1918-.2726-.2764-.1152-.0845-.2517-.1662-.4096-.245-.1579-.0787-.3282-.1589-.5108-.2406-.4661-.211-.8134-.4691-1.042-.7744-.2285-.3052-.3428-.6737-.3428-1.1054 0-.3383.0632-.629.1896-.8721.1265-.243.2988-.4433.517-.6008s.4708-.2732.7578-.3471.5911-.1108.9123-.1108c.315 0 .5941.0202.8375.0605.2434.0404.4677.1023.6728.1859v1.3403c-.0999-.0778-.2087-.1464-.3266-.2057s-.2393-.1084-.3644-.1473-.2492-.0675-.3725-.086-.2407-.0277-.3523-.0277c-.152 0-.2906.0165-.4157.0496-.125.033-.2305.0797-.3165.14-.0859.0602-.1525.1324-.1997.2165s-.0709.1782-.0709.2822c0 .1089.0264.2064.079.2924.0526.0861.1275.1675.2247.2443s.2151.1524.3536.2268c.1386.0743.2951.1504.4697.2282.2384.1089.4526.2246.6424.3471.1899.1225.3527.2608.4886.4149s.2398.33.3118.5279c.0719.1978.1079.428.1079.6905 0 .3626-.0643.6669-.193.9129-.1286.246-.3032.4453-.5236.5979-.2205.1527-.4769.2623-.7693.3289s-.6011.0999-.9259.0999c-.3338 0-.6512-.0297-.9522-.089-.3009-.0593-.5616-.1477-.7821-.2654z"/><path d="m22.6054 25.6348v-1.4189c.2438.2177.5083.3811.7935.49.2853.1088.5732.1633.8638.1633.171 0 .3201-.0175.4474-.0525s.2337-.0834.3192-.1451.1492-.1344.191-.218.0628-.1746.0628-.2727c0-.1264-.0333-.2395-.0999-.3391-.0666-.0997-.1575-.1918-.2727-.2764-.1151-.0845-.2517-.1662-.4096-.245-.1579-.0787-.3282-.1589-.5108-.2406-.4661-.211-.8134-.4691-1.0419-.7744-.2286-.3052-.3428-.6737-.3428-1.1054 0-.3383.0632-.629.1896-.8721.1264-.243.2987-.4433.5169-.6008s.4708-.2732.7578-.3471.5912-.1108.9124-.1108c.3149 0 .5941.0202.8374.0605.2434.0404.4677.1023.6728.1859v1.3403c-.0998-.0778-.2087-.1464-.3266-.2057-.1178-.0593-.2393-.1084-.3644-.1473-.125-.0389-.2492-.0675-.3725-.086s-.2407-.0277-.3522-.0277c-.1521 0-.2907.0165-.4157.0496-.1251.033-.2306.0797-.3165.14-.086.0602-.1525.1324-.1998.2165-.0472.0841-.0708.1782-.0708.2822 0 .1089.0263.2064.0789.2924.0527.0861.1276.1675.2247.2443.0972.0768.2151.1524.3536.2268.1386.0743.2952.1504.4697.2282.2385.1089.4526.2246.6425.3471.1898.1225.3527.2608.4885.4149.1359.1541.2398.33.3118.5279.072.1978.108.428.108.6905 0 .3626-.0644.6669-.193.9129-.1287.246-.3033.4453-.5237.5979-.2204.1527-.4769.2623-.7693.3289s-.601.0999-.9259.0999c-.3338 0-.6512-.0297-.9521-.089-.301-.0593-.5617-.1477-.7821-.2654z"/><path d="m29.6019 19.3625v1.12h-.5182v4.2934h.5182v1.12h-2.4185v-1.12h.5182v-4.2934h-.5182v-1.12z"/><path d="m35.9075 25.8959h-1.3848l-2.4766-4.1053c-.1448-.2401-.2456-.4209-.3023-.5425h-.0162c.0225.2305.0338.5829.0338 1.0573v3.5905h-1.2957v-6.5334h1.4765l2.3848 3.9769c.1089.1799.2097.3578.3024.5337h.0162c-.0225-.1516-.0338-.4506-.0338-.8968v-3.6138h1.2957z"/><path d="m42.2994 25.4394c-.592.3665-1.3276.5498-2.2067.5498-.9744 0-1.7428-.2892-2.3052-.8677-.5623-.5785-.8435-1.3752-.8435-2.3902 0-1.0209.3086-1.8531.9259-2.4967.6172-.6436 1.4382-.9654 2.4631-.9654.6451 0 1.2142.0962 1.7073.2887v1.3913c-.467-.3111-1.0379-.4667-1.7127-.4667-.5651 0-1.0255.1984-1.3814.595-.3559.3967-.5338.9261-.5338 1.5881 0 .6719.157 1.1915.471 1.559.3141.3675.7379.5513 1.2714.5513.3203 0 .5745-.0491.7626-.1473v-1.2527h-1.2093v-1.2134h2.5913z"/><path d="m16.343 31.9625v1.12h-.5183v4.2934h.5183v1.12h-2.4186v-1.12h.5183v-4.2934h-.5183v-1.12z"/><path d="m21.5256 38.245c-.4363.2295-1.0063.3442-1.71.3442-.9186 0-1.6407-.2931-2.1661-.8794-.5255-.5862-.7882-1.3669-.7882-2.3421 0-1.0393.2955-1.8822.8867-2.5287.5911-.6465 1.3582-.9698 2.3011-.9698.584 0 1.0761.0817 1.4765.245v1.435c-.3941-.2489-.843-.3733-1.3469-.3733-.5534 0-.9999.1876-1.3395.5629-.3397.3753-.5095.8837-.5095 1.5254 0 .6154.1601 1.1057.4805 1.4707.3203.3651.7517.5476 1.2943.5476.5173 0 .9911-.1244 1.4211-.3733z"/><path d="m25.1697 38.5892c-.871 0-1.5809-.3029-2.1298-.9086-.5488-.6056-.8232-1.3951-.8232-2.3683 0-1.0267.2784-1.8572.8354-2.4915.5569-.6344 1.2952-.9516 2.2148-.9516.8682 0 1.5703.3036 2.1061.9107.5358.6072.8037 1.4076.8037 2.4012 0 1.0218-.2778 1.8452-.8334 2.4704-.5556.6251-1.2801.9377-2.1736.9377zm.058-5.4133c-.4724 0-.8476.1883-1.1256.5651-.278.3767-.417.8757-.417 1.4969 0 .63.139 1.1283.417 1.4948.278.3666.642.5498 1.0919.5498.4643 0 .8327-.1781 1.1053-.5345.2727-.3563.409-.8509.409-1.4838 0-.6592-.1321-1.172-.3961-1.5385-.2641-.3666-.6256-.5498-1.0845-.5498z"/><path d="m34.5686 38.4959h-1.3847l-2.4766-4.1053c-.1449-.2401-.2456-.4209-.3023-.5425h-.0162c.0225.2305.0337.5829.0337 1.0573v3.5905h-1.2956v-6.5334h1.4765l2.3848 3.9769c.1089.1799.2096.3578.3023.5337h.0162c-.0225-.1516-.0337-.4506-.0337-.8968v-3.6138h1.2956z"/></g></g></svg>

﻿<?xml version="1.0" encoding="utf-8"?>
<!DOCTYPE svg PUBLIC "-//W3C//DTD SVG 1.1//EN" "http://www.w3.org/Graphics/SVG/1.1/DTD/svg11.dtd">
<svg xmlns="http://www.w3.org/2000/svg" xmlns:xlink="http://www.w3.org/1999/xlink" version="1.1" baseProfile="full" width="50" height="50" viewBox="0 0 50.00 50.00" enable-background="new 0 0 50.00 50.00" xml:space="preserve">
	<radialGradient id="SVGID_Fill1_" cx="25" cy="25" r="24" gradientUnits="userSpaceOnUse">
		<stop offset="0" stop-color="#FCD7D7" stop-opacity="1"/>
		<stop offset="0.991379" stop-color="#FF0000" stop-opacity="1"/>
	</radialGradient>
	<ellipse fill="url(#SVGID_Fill1_)" stroke-width="2" stroke-linejoin="round" stroke="#000000" stroke-opacity="1" cx="25" cy="25" rx="22.5" ry="22.5"/>
	<radialGradient id="SVGID_Fill2_" cx="25" cy="-6.03447" r="40" gradientUnits="userSpaceOnUse">
		<stop offset="0" stop-color="#FFFFFF" stop-opacity="0.486275"/>
		<stop offset="0.271552" stop-color="#FFF1F1" stop-opacity="0.486275"/>
		<stop offset="1" stop-color="#FF0000" stop-opacity="0.486275"/>
	</radialGradient>
	<ellipse fill="url(#SVGID_Fill2_)" stroke-width="0.2" stroke-linejoin="round" cx="25" cy="25" rx="20" ry="20"/>
	<radialGradient id="SVGID_Fill3_" cx="25" cy="12.5862" r="40" gradientUnits="userSpaceOnUse" gradientTransform="rotate(180.000000 25.000019 12.586216)">
		<stop offset="0.116379" stop-color="#FFFFFF" stop-opacity="0"/>
		<stop offset="1" stop-color="#FFE700" stop-opacity="0.513725"/>
	</radialGradient>
	<ellipse fill="url(#SVGID_Fill3_)" stroke-width="0.2" stroke-linejoin="round" cx="25" cy="25" rx="20" ry="20"/>
	<g>
		<path fill="#000000" fill-opacity="1" stroke-width="0.299998" stroke-linejoin="round" stroke="#FFFFFF" stroke-opacity="1" d="M 13.8812,25.8959L 12.4992,25.8959L 12.4992,21.9861C 12.4992,21.5641 12.5167,21.0979 12.5518,20.5875L 12.5181,20.5875C 12.4479,20.9891 12.3845,21.2778 12.3278,21.4538L 10.9107,25.8959L 9.79721,25.8959L 8.35443,21.499C 8.31485,21.3804 8.25141,21.0765 8.16413,20.5875L 8.12635,20.5875C 8.16233,21.2321 8.18033,21.7975 8.18033,22.2836L 8.18033,25.8959L 6.97105,25.8959L 6.97105,19.3625L 8.94828,19.3625L 10.1832,23.2359C 10.2822,23.545 10.3542,23.8561 10.3992,24.1692L 10.4248,24.1692C 10.5004,23.8075 10.5805,23.493 10.665,23.2257L 11.9,19.3625L 13.8812,19.3625L 13.8812,25.8959 Z "/>
		<path fill="#000000" fill-opacity="1" stroke-width="0.299998" stroke-linejoin="round" stroke="#FFFFFF" stroke-opacity="1" d="M 17.1636,19.3625L 17.1636,20.4825L 16.6453,20.4825L 16.6453,24.7759L 17.1636,24.7759L 17.1636,25.8959L 14.745,25.8959L 14.745,24.7759L 15.2633,24.7759L 15.2633,20.4825L 14.745,20.4825L 14.745,19.3625L 17.1636,19.3625 Z "/>
		<path fill="#000000" fill-opacity="1" stroke-width="0.299998" stroke-linejoin="round" stroke="#FFFFFF" stroke-opacity="1" d="M 17.7682,25.6348L 17.7682,24.2159C 18.0121,24.4336 18.2766,24.597 18.5618,24.7059C 18.847,24.8147 19.135,24.8692 19.4256,24.8692C 19.5965,24.8692 19.7457,24.8517 19.873,24.8167C 20.0003,24.7817 20.1067,24.7333 20.1922,24.6716C 20.2777,24.6099 20.3413,24.5372 20.3832,24.4536C 20.425,24.37 20.4459,24.279 20.4459,24.1809C 20.4459,24.0545 20.4126,23.9414 20.346,23.8418C 20.2795,23.7421 20.1886,23.65 20.0734,23.5654C 19.9582,23.4809 19.8217,23.3992 19.6638,23.3204C 19.5059,23.2417 19.3356,23.1615 19.153,23.0798C 18.6869,22.8688 18.3396,22.6107 18.111,22.3054C 17.8825,22.0002 17.7682,21.6317 17.7682,21.2C 17.7682,20.8617 17.8314,20.571 17.9578,20.3279C 18.0843,20.0849 18.2566,19.8846 18.4748,19.7271C 18.693,19.5696 18.9456,19.4539 19.2326,19.38C 19.5196,19.3061 19.8237,19.2692 20.1449,19.2692C 20.4599,19.2692 20.739,19.2894 20.9824,19.3297C 21.2258,19.3701 21.4501,19.432 21.6552,19.5156L 21.6552,20.8559C 21.5553,20.7781 21.4465,20.7095 21.3286,20.6502C 21.2107,20.5909 21.0893,20.5418 20.9642,20.5029C 20.8391,20.464 20.715,20.4354 20.5917,20.4169C 20.4684,20.3984 20.351,20.3892 20.2394,20.3892C 20.0874,20.3892 19.9488,20.4057 19.8237,20.4388C 19.6987,20.4718 19.5932,20.5185 19.5072,20.5788C 19.4213,20.639 19.3547,20.7112 19.3075,20.7953C 19.2603,20.8794 19.2366,20.9735 19.2366,21.0775C 19.2366,21.1864 19.263,21.2839 19.3156,21.3699C 19.3682,21.456 19.4431,21.5374 19.5403,21.6142C 19.6375,21.691 19.7554,21.7666 19.8939,21.841C 20.0325,21.9153 20.189,21.9914 20.3636,22.0692C 20.602,22.1781 20.8162,22.2938 21.006,22.4163C 21.1959,22.5388 21.3587,22.6771 21.4946,22.8312C 21.6305,22.9853 21.7344,23.1612 21.8064,23.3591C 21.8783,23.5569 21.9143,23.7871 21.9143,24.0496C 21.9143,24.4122 21.85,24.7165 21.7213,24.9625C 21.5927,25.2085 21.4181,25.4078 21.1977,25.5604C 20.9772,25.7131 20.7208,25.8227 20.4284,25.8893C 20.136,25.9559 19.8273,25.9892 19.5025,25.9892C 19.1687,25.9892 18.8513,25.9595 18.5503,25.9002C 18.2494,25.8409 17.9887,25.7525 17.7682,25.6348 Z "/>
		<path fill="#000000" fill-opacity="1" stroke-width="0.299998" stroke-linejoin="round" stroke="#FFFFFF" stroke-opacity="1" d="M 22.6054,25.6348L 22.6054,24.2159C 22.8492,24.4336 23.1137,24.597 23.3989,24.7059C 23.6842,24.8147 23.9721,24.8692 24.2627,24.8692C 24.4337,24.8692 24.5828,24.8517 24.7101,24.8167C 24.8374,24.7817 24.9438,24.7333 25.0293,24.6716C 25.1148,24.6099 25.1785,24.5372 25.2203,24.4536C 25.2621,24.37 25.2831,24.279 25.2831,24.1809C 25.2831,24.0545 25.2498,23.9414 25.1832,23.8418C 25.1166,23.7421 25.0257,23.65 24.9105,23.5654C 24.7954,23.4809 24.6588,23.3992 24.5009,23.3204C 24.343,23.2417 24.1727,23.1615 23.9901,23.0798C 23.524,22.8688 23.1767,22.6107 22.9482,22.3054C 22.7196,22.0002 22.6054,21.6317 22.6054,21.2C 22.6054,20.8617 22.6686,20.571 22.795,20.3279C 22.9214,20.0849 23.0937,19.8846 23.3119,19.7271C 23.5301,19.5696 23.7827,19.4539 24.0697,19.38C 24.3567,19.3061 24.6609,19.2692 24.9821,19.2692C 25.297,19.2692 25.5762,19.2894 25.8195,19.3297C 26.0629,19.3701 26.2872,19.432 26.4923,19.5156L 26.4923,20.8559C 26.3925,20.7781 26.2836,20.7095 26.1657,20.6502C 26.0479,20.5909 25.9264,20.5418 25.8013,20.5029C 25.6763,20.464 25.5521,20.4354 25.4288,20.4169C 25.3055,20.3984 25.1881,20.3892 25.0766,20.3892C 24.9245,20.3892 24.7859,20.4057 24.6609,20.4388C 24.5358,20.4718 24.4303,20.5185 24.3444,20.5788C 24.2584,20.639 24.1919,20.7112 24.1446,20.7953C 24.0974,20.8794 24.0738,20.9735 24.0738,21.0775C 24.0738,21.1864 24.1001,21.2839 24.1527,21.3699C 24.2054,21.456 24.2803,21.5374 24.3774,21.6142C 24.4746,21.691 24.5925,21.7666 24.731,21.841C 24.8696,21.9153 25.0262,21.9914 25.2007,22.0692C 25.4392,22.1781 25.6533,22.2938 25.8432,22.4163C 26.033,22.5388 26.1959,22.6771 26.3317,22.8312C 26.4676,22.9853 26.5715,23.1612 26.6435,23.3591C 26.7155,23.5569 26.7515,23.7871 26.7515,24.0496C 26.7515,24.4122 26.6871,24.7165 26.5585,24.9625C 26.4298,25.2085 26.2552,25.4078 26.0348,25.5604C 25.8144,25.7131 25.5579,25.8227 25.2655,25.8893C 24.9731,25.9559 24.6645,25.9892 24.3396,25.9892C 24.0058,25.9892 23.6884,25.9595 23.3875,25.9002C 23.0865,25.8409 22.8258,25.7525 22.6054,25.6348 Z "/>
		<path fill="#000000" fill-opacity="1" stroke-width="0.299998" stroke-linejoin="round" stroke="#FFFFFF" stroke-opacity="1" d="M 29.6019,19.3625L 29.6019,20.4825L 29.0837,20.4825L 29.0837,24.7759L 29.6019,24.7759L 29.6019,25.8959L 27.1834,25.8959L 27.1834,24.7759L 27.7016,24.7759L 27.7016,20.4825L 27.1834,20.4825L 27.1834,19.3625L 29.6019,19.3625 Z "/>
		<path fill="#000000" fill-opacity="1" stroke-width="0.299998" stroke-linejoin="round" stroke="#FFFFFF" stroke-opacity="1" d="M 35.9075,25.8959L 34.5227,25.8959L 32.0461,21.7906C 31.9013,21.5505 31.8005,21.3697 31.7438,21.2481L 31.7276,21.2481C 31.7501,21.4786 31.7614,21.831 31.7614,22.3054L 31.7614,25.8959L 30.4657,25.8959L 30.4657,19.3625L 31.9422,19.3625L 34.327,23.3394C 34.4359,23.5193 34.5367,23.6972 34.6294,23.8731L 34.6456,23.8731C 34.6231,23.7215 34.6118,23.4225 34.6118,22.9763L 34.6118,19.3625L 35.9075,19.3625L 35.9075,25.8959 Z "/>
		<path fill="#000000" fill-opacity="1" stroke-width="0.299998" stroke-linejoin="round" stroke="#FFFFFF" stroke-opacity="1" d="M 42.2994,25.4394C 41.7074,25.8059 40.9718,25.9892 40.0927,25.9892C 39.1183,25.9892 38.3499,25.7 37.7875,25.1215C 37.2252,24.543 36.944,23.7463 36.944,22.7313C 36.944,21.7104 37.2526,20.8782 37.8699,20.2346C 38.4871,19.591 39.3081,19.2692 40.333,19.2692C 40.9781,19.2692 41.5472,19.3654 42.0403,19.5579L 42.0403,20.9492C 41.5733,20.6381 41.0024,20.4825 40.3276,20.4825C 39.7625,20.4825 39.3021,20.6809 38.9462,21.0775C 38.5903,21.4742 38.4124,22.0036 38.4124,22.6656C 38.4124,23.3375 38.5694,23.8571 38.8834,24.2246C 39.1975,24.5921 39.6213,24.7759 40.1548,24.7759C 40.4751,24.7759 40.7293,24.7268 40.9174,24.6286L 40.9174,23.3759L 39.7081,23.3759L 39.7081,22.1625L 42.2994,22.1625L 42.2994,25.4394 Z "/>
		<path fill="#000000" fill-opacity="1" stroke-width="0.299998" stroke-linejoin="round" stroke="#FFFFFF" stroke-opacity="1" d="M 16.343,31.9625L 16.343,33.0825L 15.8247,33.0825L 15.8247,37.3759L 16.343,37.3759L 16.343,38.4959L 13.9244,38.4959L 13.9244,37.3759L 14.4427,37.3759L 14.4427,33.0825L 13.9244,33.0825L 13.9244,31.9625L 16.343,31.9625 Z "/>
		<path fill="#000000" fill-opacity="1" stroke-width="0.299998" stroke-linejoin="round" stroke="#FFFFFF" stroke-opacity="1" d="M 21.5256,38.245C 21.0893,38.4745 20.5193,38.5892 19.8156,38.5892C 18.897,38.5892 18.1749,38.2961 17.6495,37.7098C 17.124,37.1236 16.8613,36.3429 16.8613,35.3677C 16.8613,34.3284 17.1568,33.4855 17.748,32.839C 18.3391,32.1925 19.1062,31.8692 20.0491,31.8692C 20.6331,31.8692 21.1252,31.9509 21.5256,32.1142L 21.5256,33.5492C 21.1315,33.3003 20.6826,33.1759 20.1787,33.1759C 19.6253,33.1759 19.1788,33.3635 18.8392,33.7388C 18.4995,34.1141 18.3297,34.6225 18.3297,35.2642C 18.3297,35.8796 18.4898,36.3699 18.8102,36.7349C 19.1305,37.1 19.5619,37.2825 20.1045,37.2825C 20.6218,37.2825 21.0956,37.1581 21.5256,36.9092L 21.5256,38.245 Z "/>
		<path fill="#000000" fill-opacity="1" stroke-width="0.299998" stroke-linejoin="round" stroke="#FFFFFF" stroke-opacity="1" d="M 25.1697,38.5892C 24.2987,38.5892 23.5888,38.2863 23.0399,37.6806C 22.4911,37.075 22.2167,36.2855 22.2167,35.3123C 22.2167,34.2856 22.4951,33.4551 23.0521,32.8208C 23.609,32.1864 24.3473,31.8692 25.2669,31.8692C 26.1351,31.8692 26.8372,32.1728 27.373,32.7799C 27.9088,33.3871 28.1767,34.1875 28.1767,35.1811C 28.1767,36.2029 27.8989,37.0263 27.3433,37.6515C 26.7877,38.2766 26.0632,38.5892 25.1697,38.5892 Z M 25.2277,33.1759C 24.7553,33.1759 24.3801,33.3642 24.1021,33.741C 23.8241,34.1177 23.6851,34.6167 23.6851,35.2379C 23.6851,35.8679 23.8241,36.3662 24.1021,36.7327C 24.3801,37.0993 24.7441,37.2825 25.194,37.2825C 25.6583,37.2825 26.0267,37.1044 26.2993,36.748C 26.572,36.3917 26.7083,35.8971 26.7083,35.2642C 26.7083,34.605 26.5762,34.0922 26.3122,33.7257C 26.0481,33.3591 25.6866,33.1759 25.2277,33.1759 Z "/>
		<path fill="#000000" fill-opacity="1" stroke-width="0.299998" stroke-linejoin="round" stroke="#FFFFFF" stroke-opacity="1" d="M 34.5686,38.4959L 33.1839,38.4959L 30.7073,34.3906C 30.5624,34.1505 30.4617,33.9697 30.405,33.8481L 30.3888,33.8481C 30.4113,34.0786 30.4225,34.431 30.4225,34.9054L 30.4225,38.4959L 29.1269,38.4959L 29.1269,31.9625L 30.6034,31.9625L 32.9882,35.9394C 33.0971,36.1193 33.1978,36.2972 33.2905,36.4731L 33.3067,36.4731C 33.2842,36.3215 33.273,36.0225 33.273,35.5763L 33.273,31.9625L 34.5686,31.9625L 34.5686,38.4959 Z "/>
	</g>
</svg>
